packages/icons/src/eye-slash.svg

<svg width="24" height="24" viewBox="0 0 24 24" fill="none" xmlns="http://www.w3.org/2000/svg">
<path d="M16.1 13.3L14.65 11.85C14.8 11.0667 14.575 10.3333 13.975 9.64999C13.375 8.96665 12.6 8.69999 11.65 8.84999L10.2 7.39999C10.4833 7.26665 10.7708 7.16666 11.0625 7.09999C11.3542 7.03332 11.6667 6.99999 12 6.99999C13.25 6.99999 14.3125 7.43749 15.1875 8.31249C16.0625 9.18749 16.5 10.25 16.5 11.5C16.5 11.8333 16.4667 12.1458 16.4 12.4375C16.3333 12.7292 16.2333 13.0167 16.1 13.3ZM19.3 16.45L17.85 15.05C18.4833 14.5667 19.0458 14.0375 19.5375 13.4625C20.0292 12.8875 20.45 12.2333 20.8 11.5C19.9667 9.81666 18.7708 8.47916 17.2125 7.48749C15.6542 6.49582 13.9167 5.99999 12 5.99999C11.5167 5.99999 11.0417 6.03332 10.575 6.09999C10.1083 6.16665 9.65 6.26665 9.2 6.39999L7.65 4.84999C8.33333 4.56665 9.03333 4.35415 9.75 4.21249C10.4667 4.07082 11.2167 3.99999 12 3.99999C14.5167 3.99999 16.7583 4.69582 18.725 6.08749C20.6917 7.47916 22.1167 9.28332 23 11.5C22.6167 12.4833 22.1125 13.3958 21.4875 14.2375C20.8625 15.0792 20.1333 15.8167 19.3 16.45ZM19.8 22.6L15.6 18.45C15.0167 18.6333 14.4292 18.7708 13.8375 18.8625C13.2458 18.9542 12.6333 19 12 19C9.48333 19 7.24167 18.3042 5.275 16.9125C3.30833 15.5208 1.88333 13.7167 1 11.5C1.35 10.6167 1.79167 9.79582 2.325 9.03749C2.85833 8.27915 3.46667 7.59999 4.15 6.99999L1.4 4.19999L2.8 2.79999L21.2 21.2L19.8 22.6ZM5.55 8.39999C5.06667 8.83332 4.625 9.30832 4.225 9.82499C3.825 10.3417 3.48333 10.9 3.2 11.5C4.03333 13.1833 5.22917 14.5208 6.7875 15.5125C8.34583 16.5042 10.0833 17 12 17C12.3333 17 12.6583 16.9792 12.975 16.9375C13.2917 16.8958 13.6167 16.85 13.95 16.8L13.05 15.85C12.8667 15.9 12.6917 15.9375 12.525 15.9625C12.3583 15.9875 12.1833 16 12 16C10.75 16 9.6875 15.5625 8.8125 14.6875C7.9375 13.8125 7.5 12.75 7.5 11.5C7.5 11.3167 7.5125 11.1417 7.5375 10.975C7.5625 10.8083 7.6 10.6333 7.65 10.45L5.55 8.39999Z" fill="black"/>
</svg>

<svg xmlns="http://www.w3.org/2000/svg" width="24" height="24" fill="none" viewBox="0 0 24 24">
  <path fill="#000" d="m16.1 13.3-1.45-1.45c.15-.783-.075-1.517-.675-2.2-.6-.683-1.375-.95-2.325-.8L10.2 7.4a4.24 4.24 0 0 1 .863-.3A4.2 4.2 0 0 1 12 7c1.25 0 2.313.437 3.188 1.312.874.875 1.312 1.938 1.312 3.188 0 .333-.033.646-.1.938a4.286 4.286 0 0 1-.3.862Zm3.2 3.15-1.45-1.4a10.951 10.951 0 0 0 1.688-1.588A8.898 8.898 0 0 0 20.8 11.5a9.843 9.843 0 0 0-3.588-4.013C15.654 6.496 13.917 6 12 6c-.483 0-.958.033-1.425.1a9.622 9.622 0 0 0-1.375.3L7.65 4.85A11.08 11.08 0 0 1 12 4c2.517 0 4.758.696 6.725 2.087C20.692 7.48 22.117 9.283 23 11.5a11.696 11.696 0 0 1-1.512 2.738A11.007 11.007 0 0 1 19.3 16.45Zm.5 6.15-4.2-4.15c-.583.183-1.17.32-1.762.413-.592.091-1.205.137-1.838.137-2.517 0-4.758-.696-6.725-2.087C3.308 15.52 1.883 13.717 1 11.5c.35-.883.792-1.704 1.325-2.463A11.514 11.514 0 0 1 4.15 7L1.4 4.2l1.4-1.4 18.4 18.4-1.4 1.4ZM5.55 8.4a10.72 10.72 0 0 0-1.325 1.425A9.016 9.016 0 0 0 3.2 11.5a9.839 9.839 0 0 0 3.587 4.012C8.346 16.505 10.083 17 12 17c.333 0 .658-.02.975-.063.317-.041.642-.087.975-.137l-.9-.95c-.183.05-.358.088-.525.113A3.539 3.539 0 0 1 12 16c-1.25 0-2.313-.438-3.188-1.313C7.939 13.813 7.5 12.75 7.5 11.5a3.687 3.687 0 0 1 .15-1.05L5.55 8.4Z"/>
</svg>
